src/assets/filled/Key.svg

<svg width="24" height="24" viewBox="0 0 24 24"  xmlns="http://www.w3.org/2000/svg">
<path d="M19.7899 4.21982C16.8299 1.26982 12.0299 1.26982 9.0899 4.21982C7.0199 6.26982 6.3999 9.21982 7.1999 11.8198L2.4999 16.5198C2.1699 16.8598 1.9399 17.5298 2.0099 18.0098L2.3099 20.1898C2.4199 20.9098 3.0899 21.5898 3.8099 21.6898L5.9899 21.9898C6.4699 22.0598 7.1399 21.8398 7.4799 21.4898L8.2999 20.6698C8.4999 20.4798 8.4999 20.1598 8.2999 19.9598L6.3599 18.0198C6.0699 17.7298 6.0699 17.2498 6.3599 16.9598C6.6499 16.6698 7.1299 16.6698 7.4199 16.9598L9.3699 18.9098C9.5599 19.0998 9.8799 19.0998 10.0699 18.9098L12.1899 16.7998C14.7799 17.6098 17.7299 16.9798 19.7899 14.9298C22.7399 11.9798 22.7399 7.16982 19.7899 4.21982ZM14.4999 11.9998C13.1199 11.9998 11.9999 10.8798 11.9999 9.49982C11.9999 8.11982 13.1199 6.99982 14.4999 6.99982C15.8799 6.99982 16.9999 8.11982 16.9999 9.49982C16.9999 10.8798 15.8799 11.9998 14.4999 11.9998Z" />
</svg>

<?xml version="1.0" encoding="UTF-8"?>
<svg width="24" height="24" viewBox="0 0 24 24" xmlns="http://www.w3.org/2000/svg">
 <path d="m19.79 4.2198c-2.96-2.95-7.76-2.95-10.7 0-2.07 2.05-2.69 5-1.89 7.6l-4.7 4.7c-0.33 0.34-0.56 1.01-0.49 1.49l0.3 2.18c0.11 0.72 0.78 1.4 1.5 1.5l2.18 0.3c0.48 0.07 1.15-0.15 1.49-0.5l0.82-0.82c0.2-0.19 0.2-0.51 0-0.71l-1.94-1.94c-0.29-0.29-0.29-0.77 0-1.06s0.77-0.29 1.06 0l1.95 1.95c0.19 0.19 0.51 0.19 0.7 0l2.12-2.11c2.59 0.81 5.54 0.18 7.6-1.87 2.95-2.95 2.95-7.76 0-10.71zm-5.29 7.78c-1.38 0-2.5-1.12-2.5-2.5 0-1.38 1.12-2.5 2.5-2.5s2.5 1.12 2.5 2.5c0 1.38-1.12 2.5-2.5 2.5z"/>
</svg>
